images/01.svg

<svg width="87" height="54" viewBox="0 0 87 54" fill="none" xmlns="http://www.w3.org/2000/svg">
<path d="M25.3133 0.159998C30.4013 0.159998 34.7213 1.192 38.2733 3.256C41.8253 5.32 44.5253 8.344 46.3733 12.328C48.2453 16.312 49.1813 21.172 49.1813 26.908C49.1813 32.308 48.1733 37 46.1573 40.984C44.1653 44.944 41.3453 48.016 37.6973 50.2C34.0733 52.36 29.7893 53.44 24.8453 53.44C19.7813 53.44 15.4613 52.408 11.8853 50.344C8.33325 48.28 5.62125 45.256 3.74925 41.272C1.90125 37.288 0.97725 32.428 0.97725 26.692C0.97725 21.292 1.97325 16.612 3.96525 12.652C5.98125 8.668 8.81325 5.596 12.4613 3.436C16.1093 1.252 20.3933 0.159998 25.3133 0.159998ZM32.1893 28.6C32.1893 22.696 31.9133 17.98 31.3613 14.452C30.8333 10.924 30.0173 8.38 28.9133 6.82C27.8333 5.26 26.4533 4.48 24.7733 4.48C23.2373 4.48 21.9653 5.164 20.9573 6.532C19.9493 7.876 19.1933 10.06 18.6893 13.084C18.2093 16.084 17.9693 20.056 17.9693 25C17.9693 30.904 18.2333 35.62 18.7613 39.148C19.3133 42.676 20.1293 45.22 21.2093 46.78C22.3133 48.34 23.7053 49.12 25.3853 49.12C26.9213 49.12 28.1933 48.448 29.2013 47.104C30.2093 45.736 30.9533 43.552 31.4333 40.552C31.9373 37.528 32.1893 33.544 32.1893 28.6ZM57.603 10.024H59.799C60.639 10.024 61.239 10.24 61.599 10.672C61.983 11.104 62.175 11.92 62.175 13.12V42.964C62.175 43.924 61.983 44.656 61.599 45.16C61.239 45.64 60.711 45.964 60.015 46.132L56.415 46.924C54.807 47.308 54.003 48.172 54.003 49.516C54.003 50.284 54.255 50.896 54.759 51.352C55.287 51.784 56.091 52 57.171 52H83.343C84.279 52 84.975 51.784 85.431 51.352C85.887 50.896 86.115 50.284 86.115 49.516C86.115 48.148 85.443 47.296 84.099 46.96L80.895 46.132C80.247 45.964 79.743 45.64 79.383 45.16C79.047 44.656 78.879 43.924 78.879 42.964V3.364C78.879 1.468 77.907 0.519998 75.963 0.519998C75.363 0.519998 74.787 0.591998 74.235 0.735999C73.707 0.855999 73.119 1.084 72.471 1.42C70.479 2.38 68.667 3.112 67.035 3.616C65.403 4.12 63.411 4.372 61.059 4.372H57.819C56.787 4.372 55.971 4.648 55.371 5.2C54.771 5.728 54.471 6.4 54.471 7.216C54.471 8.032 54.723 8.704 55.227 9.232C55.731 9.76 56.523 10.024 57.603 10.024Z" fill="#FDD6BA"/>
</svg>

<svg width="87" height="54" fill="none" xmlns="http://www.w3.org/2000/svg"><path d="M25.313.16c5.088 0 9.408 1.032 12.96 3.096 3.552 2.064 6.252 5.088 8.1 9.072 1.872 3.984 2.808 8.844 2.808 14.58 0 5.4-1.008 10.092-3.024 14.076-1.992 3.96-4.812 7.032-8.46 9.216-3.624 2.16-7.908 3.24-12.852 3.24-5.064 0-9.384-1.032-12.96-3.096-3.552-2.064-6.264-5.088-8.136-9.072C1.901 37.288.977 32.428.977 26.692c0-5.4.996-10.08 2.988-14.04 2.016-3.984 4.848-7.056 8.496-9.216C16.11 1.252 20.393.16 25.313.16ZM32.19 28.6c0-5.904-.276-10.62-.828-14.148-.528-3.528-1.344-6.072-2.448-7.632-1.08-1.56-2.46-2.34-4.14-2.34-1.536 0-2.808.684-3.816 2.052-1.008 1.344-1.764 3.528-2.268 6.552-.48 3-.72 6.972-.72 11.916 0 5.904.264 10.62.792 14.148.552 3.528 1.368 6.072 2.448 7.632 1.104 1.56 2.496 2.34 4.176 2.34 1.536 0 2.808-.672 3.816-2.016 1.008-1.368 1.752-3.552 2.232-6.552.504-3.024.756-7.008.756-11.952Zm25.414-18.576h2.196c.84 0 1.44.216 1.8.648.384.432.576 1.248.576 2.448v29.844c0 .96-.192 1.692-.576 2.196-.36.48-.888.804-1.584.972l-3.6.792c-1.608.384-2.412 1.248-2.412 2.592 0 .768.252 1.38.756 1.836.528.432 1.332.648 2.412.648h26.172c.936 0 1.632-.216 2.088-.648.456-.456.684-1.068.684-1.836 0-1.368-.672-2.22-2.016-2.556l-3.204-.828c-.648-.168-1.152-.492-1.512-.972-.336-.504-.504-1.236-.504-2.196v-39.6c0-1.896-.972-2.844-2.916-2.844-.6 0-1.176.072-1.728.216-.528.12-1.116.348-1.764.684-1.992.96-3.804 1.692-5.436 2.196-1.632.504-3.624.756-5.976.756h-3.24c-1.032 0-1.848.276-2.448.828-.6.528-.9 1.2-.9 2.016 0 .816.252 1.488.756 2.016s1.296.792 2.376.792Z" fill="#FDD6BA"/></svg>
